src/next/cmd/lc_dismantle.svg

<svg height="24" width="24" xmlns="http://www.w3.org/2000/svg" xmlns:xlink="http://www.w3.org/1999/xlink"><linearGradient id="a" gradientTransform="matrix(0 -.25673743 -.32142341 0 19.714015 36.635115)" gradientUnits="userSpaceOnUse" x1="94.006996" x2="72.584335" xlink:href="#e" y1="11.554898" y2="41.110928"/><linearGradient id="b" gradientTransform="matrix(0 .10714115 .14285503 0 .285754 8.059676)" gradientUnits="userSpaceOnUse" x1="119.57646" x2="15.999996" xlink:href="#d" y1="23.792561" y2="109.6508"/><linearGradient id="c" gradientUnits="userSpaceOnUse" x1="8.995441" x2="22.988137" y1="7.975757" y2="7.975757"><stop offset="0" stop-color="#b4b4b6"/><stop offset=".5" stop-color="#9c9ca1"/><stop offset="1" stop-color="#cdcdd1"/></linearGradient><linearGradient id="d"><stop offset="0" stop-color="#fff"/><stop offset=".42597079" stop-color="#fff"/><stop offset=".5892781" stop-color="#e5e5e5"/><stop offset=".80219781" stop-color="#eaeaea"/><stop offset="1" stop-color="#eee"/></linearGradient><linearGradient id="e"><stop offset="0" stop-color="#fff"/><stop offset="1" stop-color="#fff" stop-opacity="0"/></linearGradient><linearGradient id="f" gradientTransform="matrix(0 .06940293 .11152912 0 -45.287813 40.766346)" gradientUnits="userSpaceOnUse" x1="399.77466" x2="399.77466" y1="1164.6696" y2="549.06134"><stop offset="0" stop-color="#717174"/><stop offset=".5" stop-color="#9c9ca1"/><stop offset="1" stop-color="#bdbdc2"/></linearGradient><linearGradient id="g" gradientUnits="userSpaceOnUse" x1="11.707651" x2="19.471256" xlink:href="#d" y1="11.279128" y2="3.190106"/><linearGradient id="h" gradientUnits="userSpaceOnUse" x1="22.598003" x2="13.225619" xlink:href="#e" y1="3.494749" y2="11.329665"/><g transform="matrix(.1875 0 0 .1875 -.000001 0)"><path d="m15.992188.97851562c-3.864541.0001403-6.9970324 3.13350638-6.9960942 6.99804688.0001408 3.8637775 3.1323162 6.9959535 6.9960942 6.9960935 3.863777-.000141 6.995952-3.132316 6.996093-6.9960935.000938-3.8645401-3.131553-6.99790592-6.996093-6.99804688z" fill="url(#c)" stroke-width=".1875" transform="matrix(5.3333333 0 0 5.3333333 .000005 0)"/><path d="m15.992188 2.0390625a5.9358197 5.9358197 0 0 0 -5.919922 5.515625 5.9358197 5.9358197 0 0 0 -.015625.4199219 5.9358197 5.9358197 0 0 0 .029297.5917968 5.9358197 5.9358197 0 0 0 0 .0019532 5.9358197 5.9358197 0 0 0 .060546.4316406h.003907a5.9358197 5.9358197 0 0 0 .007812.0527344 5.9358197 5.9358197 0 0 1 -.011719-.0527344 5.9358197 5.9358197 0 0 0 .023438.1230469 5.9358197 5.9358197 0 0 0 .003906.0253906 5.9358197 5.9358197 0 0 0 .082031.328125 5.9358197 5.9358197 0 0 0 .035157.140625 5.9358197 5.9358197 0 0 0 .140625.4179685 5.9358197 5.9358197 0 0 0 .054687.146485 5.9358197 5.9358197 0 0 0 .173828.382812 5.9358197 5.9358197 0 0 0 .072266.148438 5.9358197 5.9358197 0 0 0 .232422.40625 5.9358197 5.9358197 0 0 0 .060547.097656 5.9358197 5.9358197 0 0 0 .328125.453125 5.9358197 5.9358197 0 0 0 .005859.007812 5.9358197 5.9358197 0 0 0 .361328.410157 5.9358197 5.9358197 0 0 0 .041016.044921 5.9358197 5.9358197 0 0 0 .423828.390626 5.9358197 5.9358197 0 0 0 .474609.357421 5.9358197 5.9358197 0 0 0 .50586.308594 5.9358197 5.9358197 0 0 0 .535156.255859 5.9358197 5.9358197 0 0 0 .558594.201172 5.9358197 5.9358197 0 0 0 1.328125.25 5.9358197 5.9358197 0 0 0 .404297.015625 5.9358197 5.9358197 0 0 0 5.935546-5.9355465 5.9358197 5.9358197 0 0 0 -.029296-.59375 5.9358197 5.9358197 0 0 0 -.060547-.4316406h-.003907a5.9358197 5.9358197 0 0 0 -.007812-.0527344 5.9358197 5.9358197 0 0 1 .011719.0527344 5.9358197 5.9358197 0 0 0 -.023438-.1230469 5.9358197 5.9358197 0 0 0 -.003906-.0253906 5.9358197 5.9358197 0 0 0 -.082031-.328125 5.9358197 5.9358197 0 0 0 -.035157-.140625 5.9358197 5.9358197 0 0 0 -.140625-.4179688 5.9358197 5.9358197 0 0 0 -.054687-.1464844 5.9358197 5.9358197 0 0 0 -.173828-.3828124 5.9358197 5.9358197 0 0 0 -.072266-.1484376 5.9358197 5.9358197 0 0 0 -.232422-.40625 5.9358197 5.9358197 0 0 0 -.060547-.0976562 5.9358197 5.9358197 0 0 0 -.328125-.453125 5.9358197 5.9358197 0 0 0 -.003906-.0058594 5.9358197 5.9358197 0 0 0 -.001953-.0019531 5.9358197 5.9358197 0 0 0 -.361328-.4101563 5.9358197 5.9358197 0 0 0 -.029297-.0332031 5.9358197 5.9358197 0 0 0 -.011719-.0117187 5.9358197 5.9358197 0 0 0 -.423828-.390625 5.9358197 5.9358197 0 0 0 -.474609-.3574219 5.9358197 5.9358197 0 0 0 -.50586-.3085937 5.9358197 5.9358197 0 0 0 -.535156-.2558594 5.9358197 5.9358197 0 0 0 -.558594-.2011719 5.9358197 5.9358197 0 0 0 -1.328125-.25 5.9358197 5.9358197 0 0 0 -.404296-.015625z" fill="url(#g)" transform="matrix(5.3333333 0 0 5.3333333 .000005 0)"/><path d="m20.681641 4.3417969c-3.144207 1.658639-7.154807 3.5036072-10.578125 3.8554687v.4746094a5.9358199 5.9358199 0 0 0 .05664.328125h4.554688c.158283 0 .285156.1067786.285156.2382812v3.6406248c2.495205-1.798572 4.904916-3.938977 6.865234-5.7148435a5.9358199 5.9358199 0 0 0 -1.183593-2.8222656zm-10.486329 4.8730469a5.9358199 5.9358199 0 0 0 .023438.0976562 5.9358197 5.9358197 0 0 1 -.023438-.0976562zm.363282 1.1289062a5.9358199 5.9358199 0 0 0 .041015.089844 5.9358197 5.9358197 0 0 1 -.041015-.089844zm.267578.535156a5.9358199 5.9358199 0 0 0 .042969.072266 5.9358197 5.9358197 0 0 1 -.042969-.072266zm.308594.488282a5.9358199 5.9358199 0 0 0 .068359.097656 5.9358197 5.9358197 0 0 1 -.068359-.097656zm.357422.464843a5.9358199 5.9358199 0 0 0 .091796.101563 5.9358197 5.9358197 0 0 1 -.091796-.101563zm.390624.410157a5.9358199 5.9358199 0 0 0 .144532.134765 5.9358197 5.9358197 0 0 1 -.144532-.134765zm.44336.388671a5.9358199 5.9358199 0 0 0 .154297.115235 5.9358197 5.9358197 0 0 1 -.154297-.115235zm.496094.34961a5.9358199 5.9358199 0 0 0 .152343.091797 5.9358197 5.9358197 0 0 1 -.152343-.091797zm.486328.277343a5.9358199 5.9358199 0 0 0 .234375.111329 5.9358197 5.9358197 0 0 1 -.234375-.111329zm.517578.232422a5.9358199 5.9358199 0 0 0 .21289.083985c.001917-.001292.003943-.002615.00586-.003907a5.9358197 5.9358197 0 0 1 -.21875-.080078z" fill="url(#h)" fill-rule="evenodd" stroke-width=".204574" transform="matrix(5.3333333 0 0 5.3333333 .000005 0)"/><path d="m13.833338 42.666666c-1.753291 0-3.166666 1.211212-3.166666 2.71875v69.229164c0 1.50754 1.413375 2.71875 3.166666 2.71875h68.333333c1.753291 0 3.166667-1.21121 3.166667-2.71875v-69.229164c0-1.507538-1.413376-2.71875-3.166667-2.71875z" fill="url(#f)" opacity=".75" stroke-width=".75"/><g fill-rule="evenodd" stroke-width=".140625"><path d="m3.2851562 9c-.1582829 0-.2851562.1067781-.2851562.2382812v6.9394528 4.583985c0 .131503.1268731.238281.2851562.238281h4.5683594 6.8613284c.079141 0 .149668-.02718.201172-.070312.051503-.043133.083984-.102218.083984-.167969v-6.939453-4.5839848c0-.1315031-.126873-.2382812-.285156-.2382812h-4.56836z" fill="url(#b)" transform="matrix(5.3333333 0 0 5.3333333 .000005 0)"/><path d="m15 11c-2.579381.609876-9.5272532 1.75756-11.9999999 2.011719v6.988281c3.658825-1.473505 8.9777549-4.043095 11.9999999-6.5z" fill="url(#a)" transform="matrix(5.3333333 0 0 5.3333333 .000005 0)"/></g></g></svg>

<?xml version="1.0" encoding="UTF-8" standalone="no"?>
<svg
   xmlns:dc="http://purl.org/dc/elements/1.1/"
   xmlns:cc="http://creativecommons.org/ns#"
   xmlns:rdf="http://www.w3.org/1999/02/22-rdf-syntax-ns#"
   xmlns:svg="http://www.w3.org/2000/svg"
   xmlns="http://www.w3.org/2000/svg"
   xmlns:xlink="http://www.w3.org/1999/xlink"
   xmlns:sodipodi="http://sodipodi.sourceforge.net/DTD/sodipodi-0.dtd"
   xmlns:inkscape="http://www.inkscape.org/namespaces/inkscape"
   height="24"
   width="24"
   version="1.1"
   id="svg62"
   sodipodi:docname="lc_dismantle.svg"
   inkscape:version="0.92.3 (2405546, 2018-03-11)"
   inkscape:export-filename="/home/rizmut/Dokumen/Rizmut/Github/libreoffice-style-karasa-jaga/build/next/cmd/lc_dismantle.png"
   inkscape:export-xdpi="96"
   inkscape:export-ydpi="96">
  <metadata
     id="metadata68">
    <rdf:RDF>
      <cc:Work
         rdf:about="">
        <dc:format>image/svg+xml</dc:format>
        <dc:type
           rdf:resource="http://purl.org/dc/dcmitype/StillImage" />
        <dc:title></dc:title>
      </cc:Work>
    </rdf:RDF>
  </metadata>
  <defs
     id="defs66">
    <linearGradient
       inkscape:collect="always"
       xlink:href="#e"
       id="linearGradient881"
       gradientUnits="userSpaceOnUse"
       gradientTransform="matrix(0,-0.25673743,-0.32142341,0,19.714015,36.635115)"
       x1="94.006996"
       y1="11.554898"
       x2="72.584335"
       y2="41.110928" />
  </defs>
  <sodipodi:namedview
     pagecolor="#ffffff"
     bordercolor="#666666"
     borderopacity="1"
     objecttolerance="10"
     gridtolerance="10"
     guidetolerance="10"
     inkscape:pageopacity="0"
     inkscape:pageshadow="2"
     inkscape:window-width="1366"
     inkscape:window-height="714"
     id="namedview64"
     showgrid="true"
     inkscape:zoom="13.906433"
     inkscape:cx="15.494484"
     inkscape:cy="15.659076"
     inkscape:window-x="0"
     inkscape:window-y="28"
     inkscape:window-maximized="1"
     inkscape:current-layer="g60">
    <inkscape:grid
       type="xygrid"
       id="grid875" />
  </sodipodi:namedview>
  <linearGradient
     id="a"
     gradientTransform="matrix(0,0.10714115,0.14285503,0,0.28575393,8.0596759)"
     gradientUnits="userSpaceOnUse"
     x1="119.57646"
     x2="15.999996"
     xlink:href="#d"
     y1="23.792561"
     y2="109.6508" />
  <linearGradient
     id="b"
     gradientTransform="matrix(0,-0.25673743,-0.32142341,0,19.714015,36.635115)"
     gradientUnits="userSpaceOnUse"
     x1="102.31124"
     x2="74.330322"
     xlink:href="#e"
     y1="-5.830213"
     y2="32" />
  <linearGradient
     id="c"
     gradientUnits="userSpaceOnUse"
     x1="8.995441"
     x2="22.988137"
     y1="7.975757"
     y2="7.975757">
    <stop
       offset="0"
       stop-color="#b4b4b6"
       id="stop4" />
    <stop
       offset=".5"
       stop-color="#9c9ca1"
       id="stop6" />
    <stop
       offset="1"
       stop-color="#cdcdd1"
       id="stop8" />
  </linearGradient>
  <linearGradient
     id="d">
    <stop
       offset="0"
       stop-color="#fff"
       id="stop11" />
    <stop
       offset=".42597079"
       stop-color="#fff"
       id="stop13" />
    <stop
       offset=".5892781"
       stop-color="#e5e5e5"
       id="stop15" />
    <stop
       offset=".80219781"
       stop-color="#eaeaea"
       id="stop17" />
    <stop
       offset="1"
       stop-color="#eee"
       id="stop19" />
  </linearGradient>
  <linearGradient
     id="e">
    <stop
       offset="0"
       stop-color="#fff"
       id="stop22" />
    <stop
       offset="1"
       stop-color="#fff"
       stop-opacity="0"
       id="stop24" />
  </linearGradient>
  <linearGradient
     id="f"
     gradientTransform="matrix(0,0.06940293,0.11152912,0,-45.287813,40.766346)"
     gradientUnits="userSpaceOnUse"
     x1="399.77466"
     x2="399.77466"
     y1="1164.6696"
     y2="549.06134">
    <stop
       offset="0"
       stop-color="#717174"
       id="stop27" />
    <stop
       offset=".5"
       stop-color="#9c9ca1"
       id="stop29" />
    <stop
       offset="1"
       stop-color="#bdbdc2"
       id="stop31" />
  </linearGradient>
  <linearGradient
     id="g"
     gradientUnits="userSpaceOnUse"
     x1="11.707651"
     x2="19.471256"
     xlink:href="#d"
     y1="11.279128"
     y2="3.190106" />
  <linearGradient
     id="h"
     gradientUnits="userSpaceOnUse"
     x1="22.598003"
     x2="13.225619"
     xlink:href="#e"
     y1="3.494749"
     y2="11.329665" />
  <g
     transform="matrix(.1875 0 0 .1875 -.000001 0)"
     id="g60">
    <path
       d="M 15.992188,0.97851562 C 12.127647,0.97865592 8.9951556,4.112022 8.9960938,7.9765625 8.9962346,11.84034 12.12841,14.972516 15.992188,14.972656 19.855965,14.972515 22.98814,11.84034 22.988281,7.9765625 22.989219,4.1120224 19.856728,0.97865658 15.992188,0.97851562 Z"
       transform="matrix(5.3333333,0,0,5.3333333,5e-6,0)"
       id="path52"
       inkscape:connector-curvature="0"
       style="fill:url(#c);stroke-width:0.1875"
       sodipodi:nodetypes="ccccc" />
    <path
       style="fill:url(#g)"
       d="M 15.992188 2.0390625 A 5.9358197 5.9358197 0 0 0 10.072266 7.5546875 A 5.9358197 5.9358197 0 0 0 10.056641 7.9746094 A 5.9358197 5.9358197 0 0 0 10.085938 8.5664062 A 5.9358197 5.9358197 0 0 0 10.085938 8.5683594 A 5.9358197 5.9358197 0 0 0 10.146484 9 L 10.150391 9 A 5.9358197 5.9358197 0 0 0 10.158203 9.0527344 A 5.9358197 5.9358197 0 0 1 10.146484 9 A 5.9358197 5.9358197 0 0 0 10.169922 9.1230469 A 5.9358197 5.9358197 0 0 0 10.173828 9.1484375 A 5.9358197 5.9358197 0 0 0 10.255859 9.4765625 A 5.9358197 5.9358197 0 0 0 10.291016 9.6171875 A 5.9358197 5.9358197 0 0 0 10.431641 10.035156 A 5.9358197 5.9358197 0 0 0 10.486328 10.181641 A 5.9358197 5.9358197 0 0 0 10.660156 10.564453 A 5.9358197 5.9358197 0 0 0 10.732422 10.712891 A 5.9358197 5.9358197 0 0 0 10.964844 11.119141 A 5.9358197 5.9358197 0 0 0 11.025391 11.216797 A 5.9358197 5.9358197 0 0 0 11.353516 11.669922 A 5.9358197 5.9358197 0 0 0 11.359375 11.677734 A 5.9358197 5.9358197 0 0 0 11.720703 12.087891 A 5.9358197 5.9358197 0 0 0 11.761719 12.132812 A 5.9358197 5.9358197 0 0 0 12.185547 12.523438 A 5.9358197 5.9358197 0 0 0 12.660156 12.880859 A 5.9358197 5.9358197 0 0 0 13.166016 13.189453 A 5.9358197 5.9358197 0 0 0 13.701172 13.445312 A 5.9358197 5.9358197 0 0 0 14.259766 13.646484 A 5.9358197 5.9358197 0 0 0 15.587891 13.896484 A 5.9358197 5.9358197 0 0 0 15.992188 13.912109 A 5.9358197 5.9358197 0 0 0 21.927734 7.9765625 A 5.9358197 5.9358197 0 0 0 21.898438 7.3828125 A 5.9358197 5.9358197 0 0 0 21.837891 6.9511719 L 21.833984 6.9511719 A 5.9358197 5.9358197 0 0 0 21.826172 6.8984375 A 5.9358197 5.9358197 0 0 1 21.837891 6.9511719 A 5.9358197 5.9358197 0 0 0 21.814453 6.828125 A 5.9358197 5.9358197 0 0 0 21.810547 6.8027344 A 5.9358197 5.9358197 0 0 0 21.728516 6.4746094 A 5.9358197 5.9358197 0 0 0 21.693359 6.3339844 A 5.9358197 5.9358197 0 0 0 21.552734 5.9160156 A 5.9358197 5.9358197 0 0 0 21.498047 5.7695312 A 5.9358197 5.9358197 0 0 0 21.324219 5.3867188 A 5.9358197 5.9358197 0 0 0 21.251953 5.2382812 A 5.9358197 5.9358197 0 0 0 21.019531 4.8320312 A 5.9358197 5.9358197 0 0 0 20.958984 4.734375 A 5.9358197 5.9358197 0 0 0 20.630859 4.28125 A 5.9358197 5.9358197 0 0 0 20.626953 4.2753906 A 5.9358197 5.9358197 0 0 0 20.625 4.2734375 A 5.9358197 5.9358197 0 0 0 20.263672 3.8632812 A 5.9358197 5.9358197 0 0 0 20.234375 3.8300781 A 5.9358197 5.9358197 0 0 0 20.222656 3.8183594 A 5.9358197 5.9358197 0 0 0 19.798828 3.4277344 A 5.9358197 5.9358197 0 0 0 19.324219 3.0703125 A 5.9358197 5.9358197 0 0 0 18.818359 2.7617188 A 5.9358197 5.9358197 0 0 0 18.283203 2.5058594 A 5.9358197 5.9358197 0 0 0 17.724609 2.3046875 A 5.9358197 5.9358197 0 0 0 16.396484 2.0546875 A 5.9358197 5.9358197 0 0 0 15.992188 2.0390625 z "
       transform="matrix(5.3333333,0,0,5.3333333,5.3333333e-6,0)"
       id="path54" />
    <path
       d="m20.681641 4.3417969c-3.144207 1.658639-7.154807 3.5036072-10.578125 3.8554687v.4746094a5.9358199 5.9358199 0 0 0 .05664.328125h4.554688c.158283 0 .285156.1067786.285156.2382812v3.6406248c2.495205-1.798572 4.904916-3.938977 6.865234-5.7148435a5.9358199 5.9358199 0 0 0 -1.183593-2.8222656zm-10.486329 4.8730469a5.9358199 5.9358199 0 0 0 .023438.0976562 5.9358197 5.9358197 0 0 1 -.023438-.0976562zm.363282 1.1289062a5.9358199 5.9358199 0 0 0 .041015.089844 5.9358197 5.9358197 0 0 1 -.041015-.089844zm.267578.535156a5.9358199 5.9358199 0 0 0 .042969.072266 5.9358197 5.9358197 0 0 1 -.042969-.072266zm.308594.488282a5.9358199 5.9358199 0 0 0 .068359.097656 5.9358197 5.9358197 0 0 1 -.068359-.097656zm.357422.464843a5.9358199 5.9358199 0 0 0 .091796.101563 5.9358197 5.9358197 0 0 1 -.091796-.101563zm.390624.410157a5.9358199 5.9358199 0 0 0 .144532.134765 5.9358197 5.9358197 0 0 1 -.144532-.134765zm.44336.388671a5.9358199 5.9358199 0 0 0 .154297.115235 5.9358197 5.9358197 0 0 1 -.154297-.115235zm.496094.34961a5.9358199 5.9358199 0 0 0 .152343.091797 5.9358197 5.9358197 0 0 1 -.152343-.091797zm.486328.277343a5.9358199 5.9358199 0 0 0 .234375.111329 5.9358197 5.9358197 0 0 1 -.234375-.111329zm.517578.232422a5.9358199 5.9358199 0 0 0 .21289.083985c.001917-.001292.003943-.002615.00586-.003907a5.9358197 5.9358197 0 0 1 -.21875-.080078z"
       fill="url(#h)"
       fill-rule="evenodd"
       stroke-width=".204574"
       transform="matrix(5.3333333 0 0 5.3333333 .000005 0)"
       id="path56" />
    <path
       inkscape:connector-curvature="0"
       style="opacity:0.75;fill:url(#f);stroke-width:0.75"
       id="path36"
       d="m 13.833338,42.666666 c -1.753291,0 -3.166666,1.211212 -3.166666,2.71875 v 69.229164 c 0,1.50754 1.413375,2.71875 3.166666,2.71875 h 68.333333 c 1.753291,0 3.166667,-1.21121 3.166667,-2.71875 V 45.385416 c 0,-1.507538 -1.413376,-2.71875 -3.166667,-2.71875 z"
       sodipodi:nodetypes="sssssssss" />
    <path
       style="fill:url(#a);fill-rule:evenodd;stroke-width:0.140625"
       d="M 3.2851562 9 C 3.1268733 9 3 9.1067781 3 9.2382812 L 3 16.177734 L 3 20.761719 C 3 20.893222 3.1268731 21 3.2851562 21 L 7.8535156 21 L 14.714844 21 C 14.793985 21 14.864512 20.97282 14.916016 20.929688 C 14.967519 20.886555 15 20.82747 15 20.761719 L 15 13.822266 L 15 9.2382812 C 15 9.1067781 14.873127 9 14.714844 9 L 10.146484 9 L 3.2851562 9 z "
       id="path38"
       transform="matrix(5.3333333,0,0,5.3333333,5.3333333e-6,0)" />
    <g
       id="g44"
       style="fill:url(#b);fill-rule:evenodd;stroke-width:0.140625">
      <path
         d="M 15,11 C 12.420619,11.609876 5.4727468,12.75756 3.0000001,13.011719 V 20 C 6.6588251,18.526495 11.977755,15.956905 15,13.5 Z"
         transform="matrix(5.3333333,0,0,5.3333333,5e-6,0)"
         id="path40"
         style="fill:url(#linearGradient881)"
         inkscape:connector-curvature="0"
         sodipodi:nodetypes="ccccc" />
    </g>
  </g>
</svg>
